X: 10915
T: Drowsy Maggie
R: reel
M: 4/4
K: Edorian
E2BE dEBE|~E2BE AFDF|E2BE dEBE|BABc dAFD|
E2BE dEBE|~E2BE AFDF|E2BE dEBE|BABc dAFA||
d2fd c2ec|dcde fa ~a2|d2fd c2ec|BABc dAFA|
d2fd c2ec|dcde fa ~a2|bgaf gfed|BABc dAFD||

